images/rep.svg

<svg height="250" viewBox="0 0 250 250" width="250" xmlns="http://www.w3.org/2000/svg"><path d="m250 125c0 69.035156-55.964844 125-125 125s-125-55.964844-125-125 55.964844-125 125-125 125 55.964844 125 125zm0 0" fill="#5f2652"/><path d="m196.074219 157.375-65.398438-117.300781c-1.132812-2.09375-3.320312-3.398438-5.699219-3.398438-2.382812 0-4.570312 1.304688-5.703124 3.398438l-65.375 117.300781c-1.699219 3.023438-.722657 6.949219 2.328124 8.75l65.472657 39.148438c2.109375 1.199218 4.691406 1.199218 6.800781 0l65.375-39.074219c2.898438-1.875 3.976562-5.800781 2.199219-8.824219m-49.425781-47.273438-1.597657-1.351562-.101562-.101562c-.507813-.414063-1.042969-.796876-1.597657-1.148438l-.101562-.101562c-.523438-.347657-1.074219-.722657-1.699219-1.074219-.101562 0-.101562-.097657-.175781-.097657-.523438-.351562-1.148438-.625-1.699219-.902343-.101562 0-.101562-.097657-.175781-.097657-.523438-.277343-1.148438-.527343-1.773438-.800781-.101562 0-.101562-.101562-.175781-.101562-.527343-.175781-1.074219-.449219-1.601562-.625-1.445313-.539063-2.933594-.957031-4.449219-1.25-1.148438 2.226562-2.773438 4.199219-4.550781 5.875 2.777343.175781 5.449219.902343 7.851562 1.875 1.417969.613281 2.789063 1.332031 4.097657 2.152343.070312.003907.136718.042969.175781.097657.351562.175781.625.449219.976562.726562.167969.089844.320313.210938.449219.347657.324219.210937.625.457031.898438.726562.175781.175781.351562.273438.527343.449219.273438.277343.523438.449219.800781.726562l1.773438 1.773438c.1875.257812.398438.5.625.726562.175781.199219.351562.449219.523438.625l.527343.800781c.175781.273438.347657.449219.449219.722657l.523438.800781c.175781.273438.277343.523438.453124.726562.171876.273438.273438.523438.449219.796876.175781.277343.273438.527343.449219.800781.101562.277343.273438.527343.351562.800781.171876.351562.273438.726562.449219.976562.75 1.824219 1.261719 3.742188 1.523438 5.699219l.800781 3.125c.351562 1.347657 3.574219 12.75 11.050781 16.597657 8.574219 4.453124 19.898438 10 24.347657 12.125l-58.75 35.152343v-24.074219c0-3.828124 7.578124-8.300781 11.050781-9.800781l.175781-.101562c.726562-.347657 1.425781-.722657 2.148438-1.148438l.277343-.175781c1.519531-.902344 2.953125-1.949219 4.273438-3.125.101562-.101562.277343-.175781.351562-.351562.175781-.097657.273438-.273438.449219-.347657.449219-.351562.800781-.800781 1.25-1.152343l.175781-.171876c.460938-.433593.878907-.910156 1.25-1.425781.097657-.175781.273438-.277343.347657-.449219.351562-.351562.625-.800781.976562-1.25.101562-.101562.175781-.277343.273438-.351562l1.078124-1.601562c0-.097657.097657-.097657.097657-.171876.449219-.726562.902343-1.527343 1.351562-2.226562-1.777343-2.148438-3.125-4.449219-4.199219-6.601562-.457031 1.324218-1.027343 2.601562-1.703124 3.828124-.273438.523438-.625 1.074219-.898438 1.597657-.101562.101562-.101562.175781-.175781.175781-.273438.433594-.574219.851562-.898438 1.25-.101562.101562-.175781.273438-.277343.351562-.277344.417969-.601563.804688-.972657 1.148438-.101562.101562-.101562.175781-.175781.175781-2.148438 2.398438-4.726562 4.449219-7.675781 5.875l-.523438.273438c-1.527343.625-14.625 6.601562-14.625 15.601562v24.074219l-58.875-35.050781c3.824219-2.324219 14.898438-8.925781 24-11.773438 3.574219-1.152343 11.148438 3.648438 15.425781 7.125l.273438.273438c.550781.554687 1.144531 1.066406 1.773438 1.527343l.175781.171876c1.351562 1.078124 2.777343 2.152343 4.375 2.953124l1.074219.523438c.070312.007812.136718.042969.175781.101562.976562.523438 1.949219.972657 3.027343 1.421876.144532.070312.292969.128906.449219.175781.097657 0 .175781.101562.347657.101562 1.527343.523438 3.027343.972657 4.550781 1.347657 1.152343-2.222657 2.851562-4.199219 4.652343-5.875-2.507812-.167969-4.976562-.707032-7.328124-1.597657-.097657-.101562-.273438-.101562-.347657-.175781-.28125-.085938-.546875-.203125-.800781-.351562-.101562-.097657-.273438-.097657-.351562-.171876-.273438-.101562-.523438-.277343-.722657-.351562-1.777343-.898438-3.402343-1.875-4.902343-3.125l-2.324219-2.148438c-2.148438-1.890624-4.476563-3.566406-6.949219-5-5.800781-3.300781-10.699219-4.375-14.449219-3.203124-7.75 2.5-16.601562 7.226562-21.949219 10.351562l58.773438-105.601562v46.300781c0 1.601562-2.398438 5.875-10.523438 9.550781l-.527343.273438c-.800781.351562-1.523438.800781-2.324219 1.25l-.175781.101562c-1.539063.925781-3 1.96875-4.375 3.125-.863281.703125-1.667969 1.480469-2.398438 2.324219l-.101562.101562c-.789063.765625-1.507813 1.601563-2.148438 2.5l-.101562.097657c-.347657.453124-.625.902343-.972657 1.351562 0 .101562-.101562.101562-.101562.175781-.273438.449219-.523438.800781-.800781 1.25 0 .097657-.097657.097657-.097657.175781l-.800781 1.347657c-.101562.101562-.101562.175781-.175781.351562-.273438.449219-.449219.898438-.625 1.25-.007812.070313-.042969.132813-.101562.175781-.171876.449219-.347657.796876-.523438 1.25-.070312.144532-.128906.292969-.175781.449219l-.523438 1.347657c-.070312.148437-.128906.296874-.175781.453124-.082031.335938-.199219.660157-.351562.972657-.097657.175781-.097657.351562-.171876.527343-.101562.449219-.277343.898438-.351562 1.25-.101562.171876-.101562.449219-.175781.625-.097657.273438-.097657.625-.175781.898438-.097657.273438-.097657.523438-.171876.800781-.101562.347657-.101562.722657-.175781 1.074219 0 .273438-.101562.449219-.101562.726562 0 .347657-.097657.625-.097657.972657.015626.328125-.019531.65625-.101562.976562v1.347657c-.011719 1.617187.105469 3.230468.351562 4.828124 2.324219.523438 4.722657 1.523438 7.324219 2.773438-.726562-2.324219-1.074219-4.726562-1.152343-7.226562v-.449219c-.015626-.59375.019531-1.1875.101562-1.773438v-.449219c0-.527343.101562-.976562.175781-1.527343v-.175781c.097657-.523438.175781-1.074219.273438-1.699219 0-.175781.101562-.273438.101562-.449219.097657-.449219.273438-.898438.347657-1.351562 0-.097657.101562-.171876.101562-.273438l.523438-1.601562c.101562-.097657.101562-.273438.175781-.347657.175781-.449219.351562-.902343.527343-1.25.097657-.101562.097657-.175781.171876-.351562.277343-.523438.453124-.972657.800781-1.425781.066406-.085938.125-.175782.175781-.273438.273438-.449219.449219-.800781.726562-1.25.066407-.085938.125-.179688.171876-.273438.300781-.46875.628906-.917968.976562-1.351562 0-.027344.007812-.050781.027344-.070312.019531-.019532.046875-.03125.074218-.03125.347657-.449219.625-.796876.972657-1.25.066406-.085938.125-.175782.175781-.273438 1.609375-1.777344 3.441406-3.339844 5.449219-4.648438l2.777343-1.351562c1.523438-.625 14.546876-6.773438 14.546876-15.800781v-46.125l59.328124 106.5c-5.277343-2.574219-14.625-7.222657-21.851562-10.972657-4.199219-2.152343-6.949219-9.726562-7.75-12.5l-.800781-3.203124c0-1.699219-.449219-3.398438-.972657-5.074219-1.886718-5.296875-5.097656-10.023438-9.328124-13.722657" fill="#fff"/></svg>

<svg xmlns="http://www.w3.org/2000/svg" xmlns:xlink="http://www.w3.org/1999/xlink" width="250px" height="250px" viewBox="0 0 250 250" version="1.1">
<g id="surface1">
<path style=" stroke:none;fill-rule:nonzero;fill:rgb(37.254903%,14.901961%,32.156864%);fill-opacity:1;" d="M 250 125 C 250 194.035156 194.035156 250 125 250 C 55.964844 250 0 194.035156 0 125 C 0 55.964844 55.964844 0 125 0 C 194.035156 0 250 55.964844 250 125 Z M 250 125 "/>
<path style=" stroke:none;fill-rule:nonzero;fill:rgb(100%,100%,100%);fill-opacity:1;" d="M 196.074219 157.375 L 130.675781 40.074219 C 129.542969 37.980469 127.355469 36.675781 124.976562 36.675781 C 122.59375 36.675781 120.40625 37.980469 119.273438 40.074219 L 53.898438 157.375 C 52.199219 160.398438 53.175781 164.324219 56.226562 166.125 L 121.699219 205.273438 C 123.808594 206.472656 126.390625 206.472656 128.5 205.273438 L 193.875 166.199219 C 196.773438 164.324219 197.851562 160.398438 196.074219 157.375 M 146.648438 110.101562 L 145.050781 108.75 L 144.949219 108.648438 C 144.441406 108.234375 143.90625 107.851562 143.351562 107.5 L 143.25 107.398438 C 142.726562 107.050781 142.175781 106.675781 141.550781 106.324219 C 141.449219 106.324219 141.449219 106.226562 141.375 106.226562 C 140.851562 105.875 140.226562 105.601562 139.675781 105.324219 C 139.574219 105.324219 139.574219 105.226562 139.5 105.226562 C 138.976562 104.949219 138.351562 104.699219 137.726562 104.425781 C 137.625 104.425781 137.625 104.324219 137.550781 104.324219 C 137.023438 104.148438 136.476562 103.875 135.949219 103.699219 C 134.503906 103.160156 133.015625 102.742188 131.5 102.449219 C 130.351562 104.675781 128.726562 106.648438 126.949219 108.324219 C 129.726562 108.5 132.398438 109.226562 134.800781 110.199219 C 136.21875 110.8125 137.589844 111.53125 138.898438 112.351562 C 138.96875 112.355469 139.035156 112.394531 139.074219 112.449219 C 139.425781 112.625 139.699219 112.898438 140.050781 113.175781 C 140.21875 113.265625 140.371094 113.386719 140.5 113.523438 C 140.824219 113.734375 141.125 113.980469 141.398438 114.25 C 141.574219 114.425781 141.75 114.523438 141.925781 114.699219 C 142.199219 114.976562 142.449219 115.148438 142.726562 115.425781 L 144.5 117.199219 C 144.6875 117.457031 144.898438 117.699219 145.125 117.925781 C 145.300781 118.125 145.476562 118.375 145.648438 118.550781 L 146.175781 119.351562 C 146.351562 119.625 146.523438 119.800781 146.625 120.074219 L 147.148438 120.875 C 147.324219 121.148438 147.425781 121.398438 147.601562 121.601562 C 147.773438 121.875 147.875 122.125 148.050781 122.398438 C 148.226562 122.675781 148.324219 122.925781 148.5 123.199219 C 148.601562 123.476562 148.773438 123.726562 148.851562 124 C 149.023438 124.351562 149.125 124.726562 149.300781 124.976562 C 150.050781 126.800781 150.5625 128.71875 150.824219 130.675781 L 151.625 133.800781 C 151.976562 135.148438 155.199219 146.550781 162.675781 150.398438 C 171.25 154.851562 182.574219 160.398438 187.023438 162.523438 L 128.273438 197.675781 L 128.273438 173.601562 C 128.273438 169.773438 135.851562 165.300781 139.324219 163.800781 L 139.5 163.699219 C 140.226562 163.351562 140.925781 162.976562 141.648438 162.550781 L 141.925781 162.375 C 143.445312 161.472656 144.878906 160.425781 146.199219 159.25 C 146.300781 159.148438 146.476562 159.074219 146.550781 158.898438 C 146.726562 158.800781 146.824219 158.625 147 158.550781 C 147.449219 158.199219 147.800781 157.75 148.25 157.398438 L 148.425781 157.226562 C 148.886719 156.792969 149.304688 156.316406 149.675781 155.800781 C 149.773438 155.625 149.949219 155.523438 150.023438 155.351562 C 150.375 155 150.648438 154.550781 151 154.101562 C 151.101562 154 151.175781 153.824219 151.273438 153.75 L 152.351562 152.148438 C 152.351562 152.050781 152.449219 152.050781 152.449219 151.976562 C 152.898438 151.25 153.351562 150.449219 153.800781 149.75 C 152.023438 147.601562 150.675781 145.300781 149.601562 143.148438 C 149.144531 144.472656 148.574219 145.75 147.898438 146.976562 C 147.625 147.5 147.273438 148.050781 147 148.574219 C 146.898438 148.675781 146.898438 148.75 146.824219 148.75 C 146.550781 149.183594 146.25 149.601562 145.925781 150 C 145.824219 150.101562 145.75 150.273438 145.648438 150.351562 C 145.371094 150.769531 145.046875 151.15625 144.675781 151.5 C 144.574219 151.601562 144.574219 151.675781 144.5 151.675781 C 142.351562 154.074219 139.773438 156.125 136.824219 157.550781 L 136.300781 157.824219 C 134.773438 158.449219 121.675781 164.425781 121.675781 173.425781 L 121.675781 197.5 L 62.800781 162.449219 C 66.625 160.125 77.699219 153.523438 86.800781 150.675781 C 90.375 149.523438 97.949219 154.324219 102.226562 157.800781 L 102.5 158.074219 C 103.050781 158.628906 103.644531 159.140625 104.273438 159.601562 L 104.449219 159.773438 C 105.800781 160.851562 107.226562 161.925781 108.824219 162.726562 L 109.898438 163.25 C 109.96875 163.257812 110.035156 163.292969 110.074219 163.351562 C 111.050781 163.875 112.023438 164.324219 113.101562 164.773438 C 113.246094 164.84375 113.394531 164.902344 113.550781 164.949219 C 113.648438 164.949219 113.726562 165.050781 113.898438 165.050781 C 115.425781 165.574219 116.925781 166.023438 118.449219 166.398438 C 119.601562 164.175781 121.300781 162.199219 123.101562 160.523438 C 120.59375 160.355469 118.125 159.816406 115.773438 158.925781 C 115.675781 158.824219 115.5 158.824219 115.425781 158.75 C 115.144531 158.664062 114.878906 158.546875 114.625 158.398438 C 114.523438 158.300781 114.351562 158.300781 114.273438 158.226562 C 114 158.125 113.75 157.949219 113.550781 157.875 C 111.773438 156.976562 110.148438 156 108.648438 154.75 L 106.324219 152.601562 C 104.175781 150.710938 101.847656 149.035156 99.375 147.601562 C 93.574219 144.300781 88.675781 143.226562 84.925781 144.398438 C 77.175781 146.898438 68.324219 151.625 62.976562 154.75 L 121.75 49.148438 L 121.75 95.449219 C 121.75 97.050781 119.351562 101.324219 111.226562 105 L 110.699219 105.273438 C 109.898438 105.625 109.175781 106.074219 108.375 106.523438 L 108.199219 106.625 C 106.660156 107.550781 105.199219 108.59375 103.824219 109.75 C 102.960938 110.453125 102.15625 111.230469 101.425781 112.074219 L 101.324219 112.175781 C 100.535156 112.941406 99.816406 113.777344 99.175781 114.675781 L 99.074219 114.773438 C 98.726562 115.226562 98.449219 115.675781 98.101562 116.125 C 98.101562 116.226562 98 116.226562 98 116.300781 C 97.726562 116.75 97.476562 117.101562 97.199219 117.550781 C 97.199219 117.648438 97.101562 117.648438 97.101562 117.726562 L 96.300781 119.074219 C 96.199219 119.175781 96.199219 119.25 96.125 119.425781 C 95.851562 119.875 95.675781 120.324219 95.5 120.675781 C 95.492188 120.746094 95.457031 120.808594 95.398438 120.851562 C 95.226562 121.300781 95.050781 121.648438 94.875 122.101562 C 94.804688 122.246094 94.746094 122.394531 94.699219 122.550781 L 94.175781 123.898438 C 94.105469 124.046875 94.046875 124.195312 94 124.351562 C 93.917969 124.6875 93.800781 125.011719 93.648438 125.324219 C 93.550781 125.5 93.550781 125.675781 93.476562 125.851562 C 93.375 126.300781 93.199219 126.75 93.125 127.101562 C 93.023438 127.273438 93.023438 127.550781 92.949219 127.726562 C 92.851562 128 92.851562 128.351562 92.773438 128.625 C 92.675781 128.898438 92.675781 129.148438 92.601562 129.425781 C 92.5 129.773438 92.5 130.148438 92.425781 130.5 C 92.425781 130.773438 92.324219 130.949219 92.324219 131.226562 C 92.324219 131.574219 92.226562 131.851562 92.226562 132.199219 C 92.242188 132.527344 92.207031 132.855469 92.125 133.175781 L 92.125 134.523438 C 92.113281 136.140625 92.230469 137.753906 92.476562 139.351562 C 94.800781 139.875 97.199219 140.875 99.800781 142.125 C 99.074219 139.800781 98.726562 137.398438 98.648438 134.898438 L 98.648438 134.449219 C 98.632812 133.855469 98.667969 133.261719 98.75 132.675781 L 98.75 132.226562 C 98.75 131.699219 98.851562 131.25 98.925781 130.699219 L 98.925781 130.523438 C 99.023438 130 99.101562 129.449219 99.199219 128.824219 C 99.199219 128.648438 99.300781 128.550781 99.300781 128.375 C 99.398438 127.925781 99.574219 127.476562 99.648438 127.023438 C 99.648438 126.925781 99.75 126.851562 99.75 126.75 L 100.273438 125.148438 C 100.375 125.050781 100.375 124.875 100.449219 124.800781 C 100.625 124.351562 100.800781 123.898438 100.976562 123.550781 C 101.074219 123.449219 101.074219 123.375 101.148438 123.199219 C 101.425781 122.675781 101.601562 122.226562 101.949219 121.773438 C 102.015625 121.6875 102.074219 121.597656 102.125 121.5 C 102.398438 121.050781 102.574219 120.699219 102.851562 120.25 C 102.917969 120.164062 102.976562 120.070312 103.023438 119.976562 C 103.324219 119.507812 103.652344 119.058594 104 118.625 C 104 118.597656 104.007812 118.574219 104.027344 118.554688 C 104.046875 118.535156 104.074219 118.523438 104.101562 118.523438 C 104.449219 118.074219 104.726562 117.726562 105.074219 117.273438 C 105.140625 117.1875 105.199219 117.097656 105.25 117 C 106.859375 115.222656 108.691406 113.660156 110.699219 112.351562 L 113.476562 111 C 115 110.375 128.023438 104.226562 128.023438 95.199219 L 128.023438 49.074219 L 187.351562 155.574219 C 182.074219 153 172.726562 148.351562 165.5 144.601562 C 161.300781 142.449219 158.550781 134.875 157.75 132.101562 L 156.949219 128.898438 C 156.949219 127.199219 156.5 125.5 155.976562 123.824219 C 154.089844 118.527344 150.878906 113.800781 146.648438 110.101562 "/>
</g>
</svg>
